icons/mysql.svg

<?xml version="1.0" encoding="UTF-8" standalone="no" ?>
<svg width="256px" height="252px" viewBox="0 0 256 252" version="1.1" xmlns="http://www.w3.org/2000/svg" xmlns:xlink="http://www.w3.org/1999/xlink" preserveAspectRatio="xMidYMid">
    <path d="M235.648276,194.211632 C221.729851,193.864559 210.942872,195.257272 201.895604,199.083964 C199.285899,200.127406 195.109927,200.128498 194.761767,203.433458 C196.154498,204.826189 196.328034,207.087716 197.546096,209.001055 C199.635192,212.479551 203.287247,217.178343 206.593317,219.614507 C210.246461,222.397748 213.900691,225.180989 217.727416,227.617153 C224.513092,231.793125 232.168625,234.22817 238.779677,238.404123 C242.608577,240.838067 246.434123,243.971711 250.261934,246.581411 C252.176407,247.971926 253.393381,250.234545 255.829549,251.104446 L255.829549,250.582732 C254.611442,249.016479 254.263282,246.754952 253.046308,245.015144 C251.307592,243.275341 249.566702,241.709083 247.826899,239.96928 C242.781025,233.1847 236.518133,227.268984 229.732547,222.397748 C224.166065,218.56995 211.986355,213.35055 209.724764,206.913051 C209.724764,206.913051 209.55014,206.73951 209.376604,206.56597 C213.204371,206.217787 217.727416,204.82618 221.381691,203.781623 C227.297466,202.215374 232.690457,202.563548 238.779677,200.998382 C241.562919,200.30203 244.347292,199.432129 247.130533,198.562222 L247.130533,196.997075 C244.00022,193.864532 241.737588,189.689684 238.431517,186.731778 C229.558965,179.075113 219.815379,171.595269 209.724764,165.332394 C204.330685,161.852792 197.371472,159.590151 191.630412,156.633369 C189.543536,155.587729 186.062797,155.06712 184.845823,153.327299 C181.713302,149.499523 179.973499,144.45476 177.711982,139.930579 C172.668329,130.360605 167.794863,119.749306 163.44541,109.658665 C160.315096,102.872993 158.400651,96.0872892 154.572862,89.8245233 C136.653166,60.2479054 117.167095,42.3281102 87.242308,24.7554574 C80.8048232,21.1023052 73.1503779,19.5360541 64.9730628,17.6227124 C60.6246649,17.4480683 56.2740469,17.1009966 51.9245072,16.9263525 C49.1412661,15.7082579 46.3569195,12.4033092 43.9207465,10.8370441 C34.0058755,4.5730961 8.42942301,-8.99607108 1.1220548,8.92370237 C-3.57563582,20.2324516 8.08126754,31.366477 12.0825475,37.1086812 C15.041536,41.1100178 18.8682195,45.6330512 20.9562053,50.1572463 C22.1742941,53.1129226 22.5213621,56.2465484 23.7394509,59.3779766 C26.523793,67.031339 29.1323922,75.5578744 32.7866404,82.691806 C34.7010855,86.3449577 36.7879657,90.1727422 39.2241297,93.477666 C40.6157457,95.3910055 43.0508086,96.2620126 43.5736286,99.3934363 C41.1385747,102.873029 40.9639284,108.092452 39.5711977,112.441992 C33.3083548,132.101492 35.7445143,156.4588 44.617071,170.89889 C47.4003121,175.247297 54.0124069,184.818421 62.8850316,181.164182 C70.7141415,178.032744 68.9743337,168.115626 71.2358604,159.41661 C71.7586894,157.327523 71.4105022,155.937017 72.4539446,154.545383 C72.4548508,154.718924 72.4539446,154.893561 72.4539446,154.893561 C74.8901041,159.764788 77.3251715,164.46251 79.5866891,169.333656 C84.980736,177.858025 94.3750434,186.731674 102.204103,192.647503 C106.381181,195.777808 109.686136,201.171877 114.905523,203.086313 L114.905523,202.563484 L114.557345,202.563484 C113.512801,200.997231 111.947645,200.301958 110.55602,199.083892 C107.424591,195.952463 103.943884,192.124665 101.50883,188.645081 C94.2025447,178.901486 87.7639408,168.115635 82.0228486,156.980496 C79.2396075,151.587555 76.8034481,145.671734 74.5419214,140.278811 C73.497378,138.189729 73.497378,135.059406 71.7575748,134.015973 C69.1478745,137.842647 65.3211911,141.148717 63.4067461,145.846417 C60.1028916,153.327344 59.7536034,162.548097 58.5355192,172.116947 C57.8402503,172.291598 58.187332,172.116947 57.8391493,172.465138 C52.2726627,171.072408 50.3582176,165.332394 48.2701955,160.460052 C43.0507905,148.107926 42.1808935,128.273684 46.7050387,114.008236 C47.923123,110.353988 53.142528,98.8717128 51.0545422,95.3921019 C50.0110998,92.0860273 46.5303924,90.1726969 44.6170529,87.5629967 C42.3555262,84.2569266 39.9193668,80.082065 38.35421,76.4278576 C34.1782383,66.6853811 32.0902615,55.898411 27.5672354,46.1548154 C25.4792496,41.6306665 21.8261069,36.9340837 18.8682195,32.7592063 C15.563264,28.0615284 11.9090067,24.7554574 9.29927023,19.1878506 C8.43046966,17.2745089 7.21128439,14.1430915 8.60290945,12.0550966 C8.95109211,10.6634847 9.64634733,10.1417599 11.0390689,9.79357497 C13.3005955,7.87912949 19.7380848,10.3152907 21.9995616,11.3587363 C28.4370509,13.9673251 33.8300058,16.4046087 39.2240527,20.0577513 C41.6591111,21.7975523 44.2688113,25.1036232 47.4002396,25.9735239 L51.0544833,25.9735239 C56.6220709,27.1905053 62.8849274,26.3216898 68.1043279,27.8868652 C77.3261638,30.843648 85.6758644,35.1942543 93.1579696,39.8919512 C115.95003,54.332049 134.738553,74.8626147 147.440063,99.3934454 C149.528049,103.39367 150.396845,107.04901 152.31129,111.22389 C155.965538,119.749365 160.488578,128.448376 164.14173,136.799218 C167.794872,144.975401 171.274474,153.327362 176.493861,160.113048 C179.104667,163.765094 189.542403,165.67953 194.240026,167.593975 C197.719632,169.159141 203.113711,170.551871 206.245112,172.465206 C212.159801,176.117243 218.075576,180.29433 223.643145,184.295646 C226.427474,186.382535 235.125402,190.733144 235.648231,194.21165 L235.648276,194.211632 L235.648276,194.211632 Z" fill="#00546B"></path>
    <path d="M58.1864892,43.0222644 C55.2286063,43.0222644 53.1417305,43.3715526 51.0537447,43.8932806 C51.0537447,43.8923744 51.0537447,44.0679225 51.0537447,44.2414633 L51.4019319,44.2414633 C52.794658,47.0247034 55.2286154,48.9391485 56.968414,51.3741978 C58.3611446,54.1574389 59.5781143,56.9417945 60.9708449,59.7261412 C61.1443766,59.5514948 61.3179175,59.3779585 61.3179175,59.3779585 C63.7551915,57.6370498 64.9721657,54.8538087 64.9721657,50.6789426 C63.9276177,49.4608583 63.7540769,48.2427786 62.8841798,47.0246944 C61.8407374,45.283782 59.5781052,44.414995 58.1864892,43.0222644 L58.1864892,43.0222644 L58.1864892,43.0222644 Z" fill="#00546B"></path>
</svg>

<svg xmlns="http://www.w3.org/2000/svg" viewBox="0 0 255.805 251.104">
  <path fill="#00546b" d="M235.624 194.212c-13.919-.347-24.706 1.045-33.753 4.872-2.61 1.043-6.786 1.045-7.134 4.35 1.393 1.392 1.567 3.654 2.785 5.567 2.089 3.479 5.74 8.177 9.047 10.614 3.653 2.783 7.307 5.566 11.134 8.002 6.786 4.176 14.441 6.611 21.052 10.787 3.83 2.434 7.655 5.568 11.482 8.177 1.915 1.39 3.132 3.654 5.568 4.523v-.521c-1.218-1.567-1.566-3.828-2.783-5.568-1.739-1.74-3.48-3.306-5.22-5.046-5.045-6.784-11.308-12.7-18.094-17.571-5.566-3.828-17.746-9.047-20.008-15.485l-.348-.347c3.828-.348 8.35-1.74 12.005-2.784 5.916-1.567 11.309-1.218 17.398-2.784 2.783-.696 5.568-1.566 8.351-2.436v-1.565c-3.13-3.132-5.393-7.307-8.699-10.265-8.873-7.657-18.616-15.137-28.707-21.4-5.394-3.48-12.353-5.742-18.094-8.699-2.087-1.045-5.568-1.566-6.785-3.306-3.132-3.827-4.872-8.872-7.134-13.396-5.043-9.57-9.917-20.182-14.266-30.272-3.13-6.786-5.045-13.572-8.873-19.834-17.92-29.577-37.405-47.497-67.33-65.07-6.438-3.653-14.092-5.219-22.27-7.132-4.348-.175-8.698-.522-13.048-.697-2.783-1.218-5.568-4.523-8.004-6.089C33.981 4.573 8.405-8.996 1.098 8.924-3.6 20.232 8.057 31.366 12.058 37.109c2.96 4.001 6.786 8.524 8.874 13.048 1.218 2.956 1.565 6.09 2.783 9.221 2.784 7.653 5.393 16.18 9.047 23.314 1.915 3.653 4.001 7.48 6.438 10.786 1.391 1.913 3.826 2.784 4.35 5.915-2.436 3.48-2.61 8.7-4.003 13.049-6.263 19.66-3.827 44.017 5.046 58.457 2.783 4.348 9.395 13.92 18.268 10.265 7.829-3.131 6.089-13.048 8.35-21.747.523-2.09.175-3.48 1.218-4.872v.349c2.437 4.87 4.872 9.569 7.133 14.44 5.394 8.524 14.789 17.398 22.618 23.314 4.177 3.13 7.482 8.524 12.701 10.438v-.523h-.348c-1.045-1.566-2.61-2.261-4.001-3.48-3.132-3.13-6.613-6.958-9.048-10.438-7.306-9.744-13.745-20.53-19.486-31.665-2.783-5.392-5.219-11.308-7.48-16.701-1.045-2.09-1.045-5.22-2.785-6.263-2.61 3.827-6.436 7.133-8.35 11.83-3.305 7.481-3.654 16.702-4.872 26.271-.695.175-.348 0-.696.348-5.567-1.393-7.481-7.133-9.57-12.005-5.219-12.352-6.089-32.186-1.564-46.452 1.218-3.654 6.437-15.136 4.35-18.616-1.044-3.306-4.525-5.22-6.438-7.829-2.262-3.306-4.698-7.48-6.263-11.135-4.176-9.743-6.264-20.53-10.787-30.273-2.088-4.524-5.741-9.22-8.7-13.396-3.304-4.697-6.958-8.004-9.568-13.571-.869-1.913-2.088-5.045-.697-7.133.349-1.392 1.044-1.913 2.437-2.261 2.261-1.915 8.699.521 10.96 1.565 6.438 2.608 11.83 5.046 17.225 8.699 2.435 1.74 5.044 5.046 8.176 5.916h3.654c5.568 1.217 11.83.348 17.05 1.913 9.222 2.957 17.571 7.307 25.053 12.005 22.793 14.44 41.581 34.97 54.283 59.501 2.088 4 2.956 7.656 4.87 11.83 3.655 8.526 8.178 17.225 11.831 25.576 3.653 8.176 7.133 16.528 12.352 23.314 2.611 3.652 13.049 5.567 17.747 7.481 3.48 1.565 8.873 2.958 12.005 4.871 5.914 3.652 11.83 7.83 17.398 11.83 2.784 2.088 11.482 6.438 12.005 9.917z"/>
  <path fill="#00546b" d="M58.162 43.022c-2.958 0-5.045.35-7.133.871v.348h.348c1.393 2.784 3.827 4.698 5.567 7.133 1.393 2.783 2.61 5.568 4.002 8.352l.347-.348c2.438-1.74 3.655-4.524 3.655-8.7-1.045-1.217-1.218-2.435-2.088-3.653-1.044-1.741-3.306-2.61-4.698-4.003z"/>
</svg>
